img/advantages/06.svg

<svg width="100" height="100" viewBox="0 0 100 100" fill="none" xmlns="http://www.w3.org/2000/svg">
<path d="M83.6207 44.2393C83.6207 63.4351 65.6721 78.9963 43.5345 78.9963C42.4632 78.9978 41.3932 78.9618 40.3263 78.8885C46.277 84.2392 54.5923 87.5622 63.7931 87.5622C67.039 87.5669 70.2715 87.1452 73.4078 86.3078C75.7951 87.5212 81.2862 89.8496 90.5242 91.3663C91.339 91.4975 91.9655 90.6448 91.6421 89.8824C90.1925 86.4554 88.8821 81.8888 88.4849 77.724C93.5093 72.682 96.5518 66.0822 96.5518 58.8675C96.5518 49.0111 90.878 40.3154 82.2357 35.1492C83.1388 38.0467 83.6207 41.0943 83.6207 44.2393Z" fill="#9EA3B5"/>
<path fill-rule="evenodd" clip-rule="evenodd" d="M79 44.4729C79 61.3027 63.1049 74.9459 43.5 74.9459C39.9825 74.9509 36.4795 74.503 33.0807 73.6138C30.4937 74.9023 24.543 77.375 14.532 78.9857C13.6489 79.125 12.97 78.2195 13.3206 77.4098C14.8914 73.7705 16.3114 68.9209 16.7419 64.498C11.2971 59.1435 8 52.1347 8 44.4729C8 27.6432 23.8951 14 43.5 14C63.1049 14 79 27.6432 79 44.4729ZM29.3103 35.6582C28.0551 35.6582 27.0376 36.6757 27.0376 37.9309C27.0376 39.1861 28.0551 40.2037 29.3103 40.2037H45.6896C46.9448 40.2037 47.9624 39.1861 47.9624 37.9309C47.9624 36.6757 46.9448 35.6582 45.6896 35.6582H29.3103ZM29.3102 51.1758C28.055 51.1758 27.0375 52.1934 27.0375 53.4486C27.0375 54.7038 28.055 55.7213 29.3102 55.7213H58.6205C59.8757 55.7213 60.8933 54.7038 60.8933 53.4486C60.8933 52.1934 59.8757 51.1758 58.6205 51.1758H29.3102Z" fill="#9EA3B5"/>
</svg>

<svg width="100" height="100" viewBox="0 0 100 100" fill="none" xmlns="http://www.w3.org/2000/svg"><path d="M83.62 44.24c0 19.195-17.948 34.756-40.086 34.756a45.868 45.868 0 01-3.208-.108c5.951 5.351 14.266 8.674 23.467 8.674a37.063 37.063 0 009.615-1.254c2.387 1.213 7.878 3.542 17.116 5.058.815.132 1.442-.721 1.118-1.484-1.45-3.427-2.76-7.993-3.157-12.158 5.024-5.042 8.067-11.642 8.067-18.857 0-9.856-5.674-18.552-14.316-23.718a30.474 30.474 0 011.385 9.09z" fill="#9EA3B5"/><path fill-rule="evenodd" clip-rule="evenodd" d="M79 44.473c0 16.83-15.895 30.473-35.5 30.473a40.942 40.942 0 01-10.42-1.332c-2.586 1.288-8.537 3.761-18.548 5.372-.883.139-1.562-.767-1.211-1.576 1.57-3.64 2.99-8.49 3.42-12.912C11.298 59.143 8 52.135 8 44.473 8 27.643 23.895 14 43.5 14S79 27.643 79 44.473zm-49.69-8.815a2.273 2.273 0 100 4.546h16.38a2.273 2.273 0 000-4.546H29.31zm0 15.518a2.273 2.273 0 000 4.545h29.31a2.273 2.273 0 100-4.545H29.31z" fill="#9EA3B5"/></svg>
